app/img/paint.svg

<svg width="48" height="48" viewBox="0 0 48 48" fill="none" xmlns="http://www.w3.org/2000/svg">
<path d="M39.5625 4.21875C39.5625 1.89258 37.6699 0 35.3438 0H7.21875C4.89258 0 3 1.89258 3 4.21875V12.6562C3 14.9824 4.89258 16.875 7.21875 16.875H35.3438C37.6699 16.875 39.5625 14.9824 39.5625 12.6562V11.25H40.9688C41.744 11.25 42.375 11.881 42.375 12.6562V18.2812C42.375 19.0565 41.744 19.6875 40.9688 19.6875H24.0938C21.7676 19.6875 19.875 21.5801 19.875 23.9062V28.125H18.4688C17.692 28.125 17.0625 28.7545 17.0625 29.5312V35.0797L15.6562 40.7955C14.7418 44.4529 17.5052 48 21.2812 48C25.0591 48 27.8196 44.4492 26.9077 40.8007L25.5 35.0797V29.5312C25.5 28.7545 24.8705 28.125 24.0938 28.125H22.6875V23.9062C22.6875 23.131 23.3185 22.5 24.0938 22.5H40.9688C43.2949 22.5 45.1875 20.6074 45.1875 18.2812V12.6562C45.1875 10.3301 43.2949 8.4375 40.9688 8.4375H39.5625V4.21875ZM22.6875 30.9375V33.8438H19.875V30.9375H22.6875ZM21.2812 45.1875C19.344 45.1875 17.9117 43.3693 18.386 41.4727L19.571 36.6562H22.9915L24.1776 41.4778C24.6486 43.3612 23.2255 45.1875 21.2812 45.1875ZM7.21875 2.8125H35.3438C36.119 2.8125 36.75 3.44348 36.75 4.21875V5.625H32.5312C31.1646 5.625 29.417 6.13696 27.3933 6.72949C24.6599 7.53003 21.5621 8.4375 18.4688 8.4375C15.4534 8.4375 13.3275 7.55676 11.4518 6.78003C10.0177 6.18604 8.66345 5.625 7.21875 5.625H5.8125V4.21875C5.8125 3.44348 6.44348 2.8125 7.21875 2.8125ZM36.75 12.6562C36.75 13.4315 36.119 14.0625 35.3438 14.0625H7.21875C6.44348 14.0625 5.8125 13.4315 5.8125 12.6562V8.4375H7.21875C8.10388 8.4375 9.10657 8.85278 10.3755 9.3783C12.3885 10.2122 14.8938 11.25 18.4688 11.25C21.9657 11.25 25.4132 10.24 28.184 9.42883C29.9242 8.91907 31.5681 8.4375 32.5312 8.4375H36.75V12.6562Z" fill="#9A9CA5"/>
</svg>

<svg width="48" height="48" fill="none" xmlns="http://www.w3.org/2000/svg"><path d="M39.563 4.219A4.224 4.224 0 0035.343 0H7.22A4.224 4.224 0 003 4.219v8.437a4.224 4.224 0 004.219 4.219h28.125a4.224 4.224 0 004.218-4.219V11.25h1.407c.775 0 1.406.631 1.406 1.406v5.625c0 .776-.631 1.407-1.406 1.407H24.094a4.224 4.224 0 00-4.219 4.218v4.219h-1.406c-.777 0-1.407.63-1.407 1.406v5.549l-1.406 5.715C14.742 44.453 17.506 48 21.281 48c3.778 0 6.539-3.55 5.627-7.2L25.5 35.08V29.53c0-.776-.63-1.406-1.406-1.406h-1.407v-4.219c0-.775.631-1.406 1.407-1.406h16.875a4.224 4.224 0 004.218-4.219v-5.625a4.224 4.224 0 00-4.218-4.219h-1.407V4.22zM22.686 30.937v2.907h-2.812v-2.907h2.813zm-1.406 14.25a2.985 2.985 0 01-2.895-3.714l1.185-4.817h3.42l1.187 4.822a2.985 2.985 0 01-2.897 3.71zM7.22 2.813h28.125c.775 0 1.406.63 1.406 1.406v1.406h-4.219c-1.366 0-3.114.512-5.138 1.104-2.733.801-5.83 1.708-8.924 1.708-3.016 0-5.142-.88-7.017-1.657-1.434-.594-2.789-1.155-4.233-1.155H5.812V4.219c0-.776.631-1.407 1.407-1.407zm29.531 9.843c0 .775-.631 1.406-1.406 1.406H7.219a1.408 1.408 0 01-1.407-1.406V8.437H7.22c.885 0 1.888.416 3.157.941 2.013.834 4.518 1.872 8.093 1.872 3.497 0 6.944-1.01 9.715-1.821 1.74-.51 3.384-.992 4.347-.992h4.219v4.22z" fill="#9A9CA5"/></svg>
